projects/Psychology of Design/images/icons/logo-white.svg

<svg width="142" height="198"><path fill-rule="evenodd" fill="#FFF" d="M89 0c6.746 3.411 10.936 9.863 16 15 4.567 4.633 10.34 10.729 13 17 7.426 17.508-.382 33.339-8 44-14.278 19.98-39.034 37.501-49 60-3.45 7.789-8.818 21.698-6 34 .889 3.883 4.71 9.557 4 14-.784 4.907-4.128 9.702-6 14h-1c-3.497-22.879-14.88-46.552-4-72 10.232-23.932 36.386-35.067 45-61 7.483-22.53-2.437-44.963-4-65zm47 38c7.897 8.582 7.329 34.145 2 45-13.745 27.998-40.358 42.37-58 66-6.396 8.567-10.116 19.606-17 28v-1c-10.241-12.313 1.107-36.56 7-46 19.901-31.881 65.373-41.219 66-92zM0 100l1-5c18.62-9.237 38.314-9.005 67-9v1c-12.445 8.341-22.916 22.487-28 38-2.209 6.738-.342 17.394-4 23-.376-20.923-14.507-47.974-36-48z"/></svg>

<svg 
 xmlns="http://www.w3.org/2000/svg"
 xmlns:xlink="http://www.w3.org/1999/xlink"
 width="142px" height="198px">
<path fill-rule="evenodd"  fill="rgb(255, 255, 255)"
 d="M89.000,-0.000 C95.746,3.411 99.936,9.863 105.000,15.000 C109.567,19.633 115.340,25.729 118.000,32.000 C125.426,49.508 117.618,65.339 110.000,76.000 C95.722,95.980 70.966,113.501 61.000,136.000 C57.550,143.789 52.182,157.698 55.000,170.000 C55.889,173.883 59.710,179.557 59.000,184.000 C58.216,188.907 54.872,193.702 53.000,198.000 C52.667,198.000 52.333,198.000 52.000,198.000 C48.503,175.121 37.120,151.448 48.000,126.000 C58.232,102.068 84.386,90.933 93.000,65.000 C100.483,42.470 90.563,20.037 89.000,-0.000 ZM136.000,38.000 C143.897,46.582 143.329,72.145 138.000,83.000 C124.255,110.998 97.642,125.370 80.000,149.000 C73.604,157.567 69.884,168.606 63.000,177.000 C63.000,176.667 63.000,176.333 63.000,176.000 C52.759,163.687 64.107,139.440 70.000,130.000 C89.901,98.119 135.373,88.781 136.000,38.000 ZM-0.000,100.000 C0.333,98.333 0.667,96.666 1.000,95.000 C19.620,85.763 39.314,85.995 68.000,86.000 C68.000,86.333 68.000,86.667 68.000,87.000 C55.555,95.341 45.084,109.487 40.000,125.000 C37.791,131.738 39.658,142.394 36.000,148.000 C35.624,127.077 21.493,100.026 -0.000,100.000 Z"/>
</svg>
